X:1
T: The Rendall Jig
C: Steve Smith 
P:Adapted by Bruce Shawyer
R:Jig
Q:180
K:D
M:6/8
L:1/16
|:f2e2d2 a4d2|f2e2d2 B4A2|f2e2d2 a4d2|f2g2a2 e6|
f2e2d2 a4d2|f2e2d2 B4A2|d2e2f2 a4f2|d6-d6|
B2d2e2 f4B2|d2e2f2 e4d2|B2d2e2 f4a2|b2a2f2 f4a2|
b2a2f2 e2d2e2|f2e2d2 B4A2|d4d2 c2B2A2|B6-B6:|
